X:174 
T:Rattle the Quilt
S:Denis Murphy
F:file ID: cre.5/174rattle
B:CRE5.053 (Corraigh an Chuilt)
N:I’m not sure what rattling a quilt would sound like - probably
fairly noiseless. Maybe we need another verb here? (Note just
to confuse matters even further - online Irish-English dictionary
says “corradh” (“corraigh” is the imperative) means “creep”. 
‘Creep the Quilt’? Well, I’m glad we cleared THAT up!)
Q:160
M:6/8
R:jig
K:Am
g|eAA gAA|edB BAB|G3 B3|de^f gag|
eAA gAA|edB BAB|GBd g^fg|edB A2:|
e|a3 age|aba age|g3 gdB|GBd g^fg|
eaa eaa|egg egg|edB g^fg|edB A2:|

